X: 1009
T: Dunphy's Hornpipe (A4)
N: page A4
N: heptatonic
C:
R:Hornpipe
K:G
M:4/4
L:1/8
|:((3uDEF) |"G"vG>vDuB>uD vG2 ((3vgag) |"C"f>ee>d e>cA>G|"D"((3FAF) uD>uG F>GA>c|
"G"((3BAG) A>F G>FE>D|G>DB>D G2 ((3gag) |"C"f>ee>d e>cA>G|"D"F>Ad>B c>AF>G|"G"((3ABA) G>F G2:|
|:uB>uc|"G"(3ded B>d g>dB>d|((3gag) b>f g>dB>d|((3gag) f>g e>d^c>d|"D"((3efe) d>^c d2 e>f|
"G"((3gag) d>c ((3BdB) G>c|"C"e>cA>G ((3FAF) D>F|"G"G>Bd>B c>AD>F|"D"(3ABA "G"G>F G2:|
